Yosa-Max-Dark/places/16x16/folder-saved-search-symbolic.svg

<?xml version="1.0" encoding="UTF-8"?>
<svg id="svg6" version="1.1" viewBox="0 0 16 16" xmlns="http://www.w3.org/2000/svg">
 <defs id="defs3051">
  <style id="current-color-scheme" type="text/css">.ColorScheme-Text {
        color:#dfdfdf;
      }</style>
 </defs>
 <path id="path4" class="ColorScheme-Text" d="m9.5898438 0.58789062c-3.20696 0-5.8574219 2.6208688-5.8574219 5.8242188 0 1.21747 0.4118737 2.3373806 1.0585937 3.2753906l-3.9042968 3.904297a1.0646081 1.0646081 0 1 0 1.4882812 1.523437l3.90625-3.904296c0.93946 0.64685 2.0888437 1.02539 3.3085938 1.02539 3.2069902 0 5.8222652-2.6209086 5.8222652-5.8242186 0-3.20335-2.615275-5.8242188-5.8222652-5.8242188zm0 1.0605469c2.6314402 0 4.7636722 2.1322219 4.7636722 4.7636719 0 2.63142-2.132232 4.7656246-4.7636722 4.7656246-2.63142 0-4.765625-2.1342046-4.765625-4.7656246 0-2.63145 2.134205-4.7636719 4.765625-4.7636719z" style="fill:#dfdfdf"/>
</svg>

<?xml version="1.0" encoding="UTF-8" standalone="no"?>
<svg
   xmlns:dc="http://purl.org/dc/elements/1.1/"
   xmlns:cc="http://creativecommons.org/ns#"
   xmlns:rdf="http://www.w3.org/1999/02/22-rdf-syntax-ns#"
   xmlns:svg="http://www.w3.org/2000/svg"
   xmlns="http://www.w3.org/2000/svg"
   xmlns:sodipodi="http://sodipodi.sourceforge.net/DTD/sodipodi-0.dtd"
   xmlns:inkscape="http://www.inkscape.org/namespaces/inkscape"
   viewBox="0 0 16 16"
   version="1.1"
   id="svg6"
   sodipodi:docname="folder-saved-search-symbolic.svg"
   inkscape:version="0.92.2 5c3e80d, 2017-08-06">
  <metadata
     id="metadata10">
    <rdf:RDF>
      <cc:Work
         rdf:about="">
        <dc:format>image/svg+xml</dc:format>
        <dc:type
           rdf:resource="http://purl.org/dc/dcmitype/StillImage" />
      </cc:Work>
    </rdf:RDF>
  </metadata>
  <sodipodi:namedview
     pagecolor="#ffffff"
     bordercolor="#666666"
     borderopacity="1"
     objecttolerance="10"
     gridtolerance="10"
     guidetolerance="10"
     inkscape:pageopacity="0"
     inkscape:pageshadow="2"
     inkscape:window-width="760"
     inkscape:window-height="480"
     id="namedview8"
     showgrid="false"
     inkscape:zoom="18.264648"
     inkscape:cx="0.66342298"
     inkscape:cy="8"
     inkscape:window-x="0"
     inkscape:window-y="0"
     inkscape:window-maximized="0"
     inkscape:current-layer="svg6" />
  <defs
     id="defs3051">
    <style
       type="text/css"
       id="current-color-scheme">
      .ColorScheme-Text {
        color:#dfdfdf;
      }
      </style>
  </defs>
  <path
     style="fill:#dfdfdf;fill-opacity:1;stroke:none"
     class="ColorScheme-Text"
     d="M 9.5898438 0.58789062 C 6.3828838 0.58789062 3.7324219 3.2087594 3.7324219 6.4121094 C 3.7324219 7.6295794 4.1442956 8.74949 4.7910156 9.6875 L 0.88671875 13.591797 A 1.0646081 1.0646081 0 1 0 2.375 15.115234 L 6.28125 11.210938 C 7.22071 11.857788 8.3700937 12.236328 9.5898438 12.236328 C 12.796834 12.236328 15.412109 9.6154194 15.412109 6.4121094 C 15.412109 3.2087594 12.796834 0.58789062 9.5898438 0.58789062 z M 9.5898438 1.6484375 C 12.221284 1.6484375 14.353516 3.7806594 14.353516 6.4121094 C 14.353516 9.0435294 12.221284 11.177734 9.5898438 11.177734 C 6.9584238 11.177734 4.8242188 9.0435294 4.8242188 6.4121094 C 4.8242188 3.7806594 6.9584238 1.6484375 9.5898438 1.6484375 z "
     id="path4" />
</svg>
